common/src/main/resources/icons/plugins/markdown/Insert_table_column.svg

<svg xmlns="http://www.w3.org/2000/svg" width="16" height="16" fill="#4DD0E1" data-big="true" viewBox="0 0 24 24"><path d="M13 2a2 2 0 0 0-2 2v16a2 2 0 0 0 2 2h9V2zm7 8v4h-7v-4zm0 6v4h-7v-4zm0-12v4h-7V4zM9 11H6V8H4v3H1v2h3v3h2v-3h3z"/></svg>

<!--
  - The MIT License (MIT)
  -
  - Copyright (c) 2015-2024 Elior "Mallowigi" Boukhobza
  -
  - Permission is hereby granted, free of charge, to any person obtaining a copy
  - of this software and associated documentation files (the "Software"), to deal
  - in the Software without restriction, including without limitation the rights
  - to use, copy, modify, merge, publish, distribute, sublicense, and/or sell
  - copies of the Software, and to permit persons to whom the Software is
  - furnished to do so, subject to the following conditions:
  -
  - The above copyright notice and this permission notice shall be included in all
  - copies or substantial portions of the Software.
  -
  - THE SOFTWARE IS PROVIDED "AS IS", WITHOUT WARRANTY OF ANY KIND, EXPRESS OR
  - IMPLIED, INCLUDING BUT NOT LIMITED TO THE WARRANTIES OF MERCHANTABILITY,
  - FITNESS FOR A PARTICULAR PURPOSE AND NONINFRINGEMENT. IN NO EVENT SHALL THE
  - AUTHORS OR COPYRIGHT HOLDERS BE LIABLE FOR ANY CLAIM, DAMAGES OR OTHER
  - LIABILITY, WHETHER IN AN ACTION OF CONTRACT, TORT OR OTHERWISE, ARISING FROM,
  - OUT OF OR IN CONNECTION WITH THE SOFTWARE OR THE USE OR OTHER DEALINGS IN THE
  - SOFTWARE.
  -->


<svg data-big="true" xmlns="http://www.w3.org/2000/svg" fill="#4DD0E1" version="1.1" width="16px" height="16px"
     viewBox="0 0 24 24">
  <path
    d="M13,2A2,2 0 0,0 11,4V20A2,2 0 0,0 13,22H22V2H13M20,10V14H13V10H20M20,16V20H13V16H20M20,4V8H13V4H20M9,11H6V8H4V11H1V13H4V16H6V13H9V11Z"/>
</svg>
